X:996
T:Cat that Kittled in Jamie's Wig, The
O:england
R:strathspey
H:Francie Byrne plays it with quarter-tones, which are not notated here.
D:The Brass Fiddle (Francie Byrne)
M:C|
K:Ador
Bc>B|A<A,A,>B, C>DE>F|G>G{A}G>F G>cB>c|A<A,A,>B, C>D (3Bcd|(3efe (3dcB A>Bc>B|
A<A,A,>B, C>DE>F|G>DB,>D G>Bc>d|(3efe (3dcB c>AB>G|E<AA>G A>B^c>d||
e<aa>^g e>f=g>d|e<aa>f g>ef>d|e<aa>^g e>f=g>f|(3efe (3d=cB c>AB>G|
e<aa>^g e>f=g>d|e<aa>f g>fg>a|(3bc'b (3agf g>ef>d|(3efe (3d=cB A||
This file contains 8 waltzes (#1 - #8).
You can find more abc tune files at http://home1.swipnet.se/~w-11382/abc.htm
I've transcribed them as I have learnt them, which does not necessarily mean
that I play them that way nowadays. Many of the tunes include variations and
different versions. If there is a source (S:) or discography (D:) included the
version transcribed might still not be exactly as that source played the tune,
since I might have changed the tune around a bit when I learnt it.
The tunes were learnt from sessions, from friends or from recordings.
When I've included discography, it's often just a reference to what recordings
the tune appears on.
Last updated 26 August 1998.
(c) Copyright 1997-1998 Henrik Norbeck. This file:
- May be distributed freely (with restrictions below).
- May not be used for commercial purposes (such as printing a tune book to sell).
- This file (or parts of it) may not be made available on a web page for
download without permission from me.
- This copyright notice must be kept, except when e-mailing individual tunes.
- May be printed on paper for personal use.
- Questions? E-mail: henrik.norbeck@mailbox.swipnet.se


